X:100
T:Rainy Day, The
M:C|
L:1/8
R:Reel (Key of Ador)
K:Ador
"Am"EAAG ~A3G | "C"Bded gedc | "G"BGGF G2dG | "Em"~G2dG eGdG |
"Am"EAAG ~A3B | "C"cBAB cdef | "G"~g3e dBGA |1 "Em"BGdB "Am"A2AG :|2 "Em"BGdB "Am"A2Bd |:
"Am"eaag ~a3g | "D"ba~a2 bgag | "G"eggf ~g3a | "Em"bg~g2 bgag |
"Am"eaag aged | "G"Bdef g2ag | "Am"eaag egdc |1 "Em"BGdB "Am"A2 Bd :|2 "Em"BGdB "Am"~A3G |]
